static/transition.svg

<svg width="1440" height="551" viewBox="0 0 1440 551" fill="none" xmlns="http://www.w3.org/2000/svg">
<path d="M943.833 60.9938H502.187C455.772 50.723 103.889 36.9468 -66 29.5085V484.973L367.143 546.72C419.16 543.562 528.196 535.471 548.203 528.379C568.209 521.288 705.254 523.387 771.276 525.323L1059.87 551C1073.21 546.007 1100.48 535.288 1102.89 532.353C1105.89 528.685 1198.42 521.043 1259.94 528.379C1309.15 534.249 1364.14 530.825 1385.48 528.379L1450 510.956V1.99984L1448.44 1.9514C1350.97 -1.07347 1303.39 -2.54977 1071.5 23.4999C1067.62 23.9352 1057.43 25.2155 1065 29C1076 34.5 1151.4 30.935 1189.41 30.4255L1347.47 28.8973C1381.98 27.3691 1427.49 27.0629 1418.49 30.12C1392.08 42.8363 1168.07 56.001 1059.37 60.9938H943.833Z" fill="#170139"/>
</svg>

<svg width="1440" height="551" fill="none" xmlns="http://www.w3.org/2000/svg"><path d="M943.833 60.994H502.187C455.772 50.723 103.889 36.947-66 29.509v455.464l433.143 61.747c52.017-3.158 161.053-11.249 181.06-18.341 20.006-7.091 157.051-4.992 223.073-3.056L1059.87 551c13.34-4.993 40.61-15.712 43.02-18.647 3-3.668 95.53-11.31 157.05-3.974 49.21 5.87 104.2 2.446 125.54 0l64.52-17.423V2l-1.56-.049c-97.47-3.024-145.05-4.5-376.94 21.549-3.88.435-14.07 1.715-6.5 5.5 11 5.5 86.4 1.935 124.41 1.425l158.06-1.528c34.51-1.528 80.02-1.834 71.02 1.223-26.41 12.716-250.42 25.881-359.12 30.874H943.833Z" fill="#170139"/></svg>
